X: 57
T:Fairies Advance,The.(primo) RH.043
M:C
L:1/8
Q:120
S:Rev.R.Harrison's MS,c1815,Cumbria
R:March
O:England
A:Temple Sowerby,Cumbria
Z:vmp.Simon Wilson....
K:D
F>G|A2A>A (A/c/d/e/) (f/c/d/B/)|A2F>F F2d>c|\
B/A/G/F/ dA f/e/d/c/ B/A/G/F/|F2E>E E2F>G|!
(Acde) fcdB|A2F>F F2d>c|Bged cbac|d2d>d d2:|!
|:f>g|a2a>f b2b>a|g/f/g/a/ ge a2ag|\
fedc Be/f/ g/f/e/d/|dcBA Bcde|!
f3g/f/ e3f/e/|d3e/d/ c3d/c/|\
Bc/d/ e/f/g/e/ d/c/B/A/ B/d/c/e/|d2d>d d2:|]
